src/pos-icons/cannabis.svg

<svg height="24" viewBox="0 0 24 24" width="24" xmlns="http://www.w3.org/2000/svg"><path d="m11.5 22v-4.65c-.5.78-1.5 1.74-3.47 2.46 0 0 .5-1.71 1.91-2.86-1.3.28-3.26.24-5.94-.95 0 0 2.47-1.41 5.28-1.03-1.59-.97-3.58-2.89-5.11-6.86 0 0 4.5 1.23 6.74 5.03-2.03-4.9 1.09-11.14 1.09-11.14 2.43 5.47 1.91 9.1 1.12 11.1 2.25-3.77 6.71-4.99 6.71-4.99-1.53 3.97-3.52 5.89-5.11 6.86 2.81-.38 5.28 1.03 5.28 1.03-2.68 1.19-4.64 1.23-5.94.95 1.41 1.15 1.91 2.86 1.91 2.86-1.97-.72-2.97-1.68-3.47-2.46v4.65z"/></svg>

<?xml version="1.0" encoding="UTF-8"?><!DOCTYPE svg PUBLIC "-//W3C//DTD SVG 1.1//EN" "http://www.w3.org/Graphics/SVG/1.1/DTD/svg11.dtd"><svg xmlns="http://www.w3.org/2000/svg" xmlns:xlink="http://www.w3.org/1999/xlink" version="1.1" id="mdi-cannabis" width="24" height="24" viewBox="0 0 24 24"><path d="M11.5,22V17.35C11,18.13 10,19.09 8.03,19.81C8.03,19.81 8.53,18.1 9.94,16.95C8.64,17.23 6.68,17.19 4,16C4,16 6.47,14.59 9.28,14.97C7.69,14 5.7,12.08 4.17,8.11C4.17,8.11 8.67,9.34 10.91,13.14C8.88,8.24 12,2 12,2C14.43,7.47 13.91,11.1 13.12,13.1C15.37,9.33 19.83,8.11 19.83,8.11C18.3,12.08 16.31,14 14.72,14.97C17.53,14.59 20,16 20,16C17.32,17.19 15.36,17.23 14.06,16.95C15.47,18.1 15.97,19.81 15.97,19.81C14,19.09 13,18.13 12.5,17.35V22H11.5Z" /></svg>
